public/sea-wave.svg

<?xml version="1.0" encoding="UTF-8" standalone="no"?>
<svg
   id="Calque_2"
   data-name="Calque 2"
   viewBox="0 0 1366.1791 537.47809"
   version="1.1"
   width="1366.1792"
   height="537.47809"
   xmlns="http://www.w3.org/2000/svg"
   xmlns:svg="http://www.w3.org/2000/svg">
  <defs
     id="defs1">
    <style
       id="style1">
      .cls-1 {
        fill: #2a39a9;
      }

      .cls-2 {
        fill: #dc1822;
        opacity: .1;
      }

      .cls-3 {
        fill: #ebece7;
      }
    </style>
  </defs>
  <g
     id="Calque_1-2"
     data-name="Calque 1"
     transform="translate(0.15740361)">
    <g
       id="g2">
      <rect
         class="cls-1"
         y="0"
         width="1366"
         height="537.47809"
         id="rect1"
         x="0"
         style="stroke-width:0.740195" />
      <path
         style="display:inline;opacity:0.500148;fill:none;fill-opacity:1;stroke:#e2e4df;stroke-opacity:1"
         d="m 0,469.73 c 4.01,1.33 8.84,3.63 12.39,6 7.1,4.74 14.8,13.79 22.85,18.1 22.93,12.29 47.01,6.01 71.1,2.67 29.86,-4.14 58.52,-14.54 83.82,-30.93 19.57,-12.68 40.67,-23.66 58.13,-30.17 20.97,-7.82 36.69,-1.07 57.66,-2.87 25.34,-2.17 39.32,-16.21 60.95,-26.05 27.85,-12.68 72.84,-17.97 103.73,-15.77 34.61,2.46 67.84,22.58 103.04,25.37 33.81,2.68 64.85,-5.95 98.66,0.46 26.11,4.95 50.78,16.45 78.02,14.44 55.99,-4.12 98.37,-35.42 156.25,-23.38 27.47,5.72 56.85,23.46 83.57,26.18 23.48,2.4 46.5,-5.21 69.05,-0.86 18.08,3.49 33.68,12.28 50.6,18.93 28.37,11.15 51.27,25 82.35,14.92 41.1,-13.33 49.56,-33.31 100.21,-28.14 20.31,2.07 40.62,19.37 60.63,16.19 1.97,0.5 8.4,0.04 12.99,-0.16"
         id="path1" />
    </g>
  </g>
</svg>

<?xml version="1.0" encoding="utf-8"?>
<svg id="Calque_2" data-name="Calque 2" viewBox="0 0 1366 537.47809" version="1.1" width="1366" height="537.47809" xmlns="http://www.w3.org/2000/svg">
  <defs id="defs1">
    <style id="style1">
      .cls-1 {
        fill: #2a39a9;
      }

      .cls-2 {
        fill: #dc1822;
        opacity: .1;
      }

      .cls-3 {
        fill: #ebece7;
      }
    </style>
  </defs>
  <g id="Calque_1-2" data-name="Calque 1" style="" transform="matrix(1.000515, 0, 0, 1, -0.696519, 0.048453)">
    <g id="g2">
      <rect class="cls-1" y="0" width="1366" height="537.47809" id="rect1" x="0" style="stroke-width:0.740195"/>
      <path style="display:inline;opacity:0.500148;fill:none;fill-opacity:1;stroke:#e2e4df;stroke-opacity:1" d="M 0.808 463.207 C 7.4 467.232 8.84 473.36 12.39 475.73 C 19.49 480.47 27.19 489.52 35.24 493.83 C 58.17 506.12 82.25 499.84 106.34 496.5 C 136.2 492.36 164.86 481.96 190.16 465.57 C 209.73 452.89 230.83 441.91 248.29 435.4 C 269.26 427.58 284.98 434.33 305.95 432.53 C 331.29 430.36 345.27 416.32 366.9 406.48 C 394.75 393.8 439.74 388.51 470.63 390.71 C 505.24 393.17 538.47 413.29 573.67 416.08 C 607.48 418.76 638.52 410.13 672.33 416.54 C 698.44 421.49 723.11 432.99 750.35 430.98 C 806.34 426.86 848.72 395.56 906.6 407.6 C 934.07 413.32 963.45 431.06 990.17 433.78 C 1013.65 436.18 1036.67 428.57 1059.22 432.92 C 1077.3 436.41 1092.9 445.2 1109.82 451.85 C 1138.19 463 1161.09 476.85 1192.17 466.77 C 1233.27 453.44 1241.73 433.46 1292.38 438.63 C 1312.69 440.7 1321.776 460.504 1341.786 457.324 C 1341.786 457.324 1355.698 467.252 1366.8 462.142" id="path1"/>
    </g>
  </g>
</svg>
